icons/logo.svg

<svg width="515" height="147" viewBox="0 0 515 147" fill="none" xmlns="http://www.w3.org/2000/svg">
<g clip-path="url(#clip0_1053_1929)">
<path d="M147.07 73.5058C147.07 80.1545 146.188 86.6091 144.529 92.7288C141.406 104.315 135.495 114.773 127.555 123.344C114.144 137.894 94.894 146.994 73.5261 146.994C52.1582 146.994 32.5194 137.682 19.0917 122.886H19.0741C7.21674 109.835 0 92.5171 0 73.5058C0 69.185 0.370542 64.9348 1.09398 60.808C6.03454 32.4145 27.2966 9.61148 54.8578 2.39846C60.8218 0.82888 67.068 0 73.5261 0C92.4943 0 109.769 7.16011 122.808 18.9584C137.718 32.3969 147.07 51.8667 147.07 73.5058Z" fill="#FCFCFC"/>
<path d="M147.07 73.5058C147.07 80.1545 146.188 86.6092 144.529 92.7288C132.442 95.1449 120.32 95.0567 108.128 93.0286C101.299 83.5229 94.0646 74.317 85.8245 65.9753C80.8134 60.8962 83.2131 54.6885 82.4896 48.9392C85.4363 48.7805 88.4183 49.2037 91.0474 46.9816C98.3347 40.7915 106.169 35.201 112.98 28.5699C113.386 28.1819 113.827 27.8116 114.303 27.4589C115.468 26.6123 116.774 25.8716 118.009 25.0428C118.256 24.884 118.503 24.7253 118.75 24.549C119.738 23.8788 120.655 23.1205 121.361 22.2034C121.873 21.5333 122.296 20.7749 122.579 19.8931C122.685 19.5933 122.773 19.2935 122.808 18.9584C137.718 32.3969 147.07 51.8667 147.07 73.5058Z" fill="#4AD2C3"/>
<path d="M45.7531 124.649C36.6836 128.459 26.9966 127.665 19.0917 122.886H19.0741C7.21674 109.835 0 92.5171 0 73.5058C0 69.185 0.370542 64.9348 1.09398 60.808C6.65211 60.6493 12.122 60.7728 17.486 61.3548C17.8036 61.39 18.1389 61.4253 18.4918 61.4606C19.6916 61.6017 20.8915 61.7604 22.0913 61.972C23.2912 62.1836 24.4734 62.3953 25.6556 62.6422C26.6437 62.8538 27.6318 63.0831 28.6199 63.33C28.6199 63.33 28.6317 63.3358 28.6552 63.3476C29.6433 63.6121 30.6138 63.8767 31.5843 64.1765C35.1838 65.2875 38.7128 66.7337 42.1182 68.5678C43.7945 69.4672 45.4531 70.4724 47.0941 71.5659C47.0941 71.5659 47.0941 71.5835 47.1117 71.5835C48.0116 72.1831 48.8762 72.818 49.7585 73.4881C50.6231 74.1583 51.5053 74.8637 52.3522 75.6044C49.2997 79.7136 46.106 83.6992 43.2652 87.9318C41.483 90.5948 38.6951 94.122 41.0948 96.8379C43.7769 99.8359 47.3058 96.8379 49.9878 95.1801C54.5755 92.3231 58.8985 89.1134 63.3803 86.0095C67.8444 101.194 59.7984 118.741 45.7531 124.649Z" fill="#E9526A"/>
<path d="M63.8567 62.9949C60.0278 67.1922 56.1812 71.4071 52.3523 75.6044C51.5053 74.8637 50.6231 74.1583 49.7585 73.4882C48.8762 72.818 48.0116 72.1831 47.1117 71.5835C47.0941 71.5835 47.0941 71.5659 47.0941 71.5659C45.4531 70.4725 43.7945 69.4672 42.1183 68.5678C38.7128 66.7337 35.1838 65.2875 31.5843 64.1765C30.6138 63.8767 29.6433 63.6121 28.6552 63.3476C28.6552 63.3476 28.6435 63.3417 28.6199 63.33C27.6318 63.0831 26.6437 62.8538 25.6556 62.6422C23.2912 62.1484 20.9092 61.7604 18.4918 61.4606C18.1389 61.4253 17.8037 61.39 17.4861 61.3548C12.122 60.7728 6.65212 60.6493 1.09399 60.8081C6.03455 32.4145 27.2966 9.61149 54.8578 2.39847C53.7991 6.38415 52.9875 10.3346 52.4934 14.2497C52.3875 14.9198 52.317 15.59 52.2464 16.2602C50.4995 32.6261 53.8521 48.2867 63.8567 62.9949Z" fill="#F4B832"/>
<path d="M122.808 18.9584C122.773 19.2935 122.685 19.5933 122.579 19.8931C122.508 20.1047 122.438 20.334 122.349 20.528C122.173 20.9513 121.979 21.3216 121.732 21.692C121.626 21.8683 121.485 22.0447 121.361 22.2034C120.655 23.1205 119.738 23.8788 118.75 24.549C118.503 24.7253 118.256 24.884 118.009 25.0428C116.774 25.8716 115.468 26.6123 114.303 27.4589C113.827 27.8116 113.386 28.1643 112.98 28.5699C106.169 35.2009 98.3347 40.7915 91.0474 46.9816C88.4183 49.2037 85.4363 48.7805 82.4897 48.9392C81.3957 42.5021 80.3899 36.0298 79.1901 29.6104C78.5372 26.1009 77.7608 21.0747 74.0201 21.11C69.6442 21.1453 68.8678 26.4536 68.2856 30.1395C66.5917 41.056 65.3036 52.0254 63.8567 62.9949C53.8521 48.2867 50.4996 32.6261 52.2464 16.2602C52.317 15.59 52.3876 14.9198 52.4934 14.2497C52.9875 10.3345 53.7991 6.38414 54.8578 2.39846C60.8218 0.82888 67.0681 0 73.5261 0C92.4943 0 109.769 7.16011 122.808 18.9584Z" fill="#53C2D9"/>
<path d="M144.529 92.7287C141.406 104.315 135.495 114.773 127.555 123.344C125.543 124.403 123.337 125.284 120.885 125.954C102.269 131.086 85.648 118.212 82.9837 97.3493C82.5426 93.8222 82.9307 90.2068 82.9307 85.6921C88.93 89.5014 94.4352 93.2754 100.205 96.5733C104.069 98.7778 107.898 99.448 108.128 93.0285C120.32 95.0567 132.442 95.1448 144.529 92.7287Z" fill="#F4B832"/>
<path d="M193.193 61.1607C195.275 61.1607 197.005 60.4906 198.399 59.1503C199.775 57.81 200.481 56.1346 200.481 54.1594C200.481 52.1842 199.793 50.35 198.399 48.9568C197.005 47.5812 195.275 46.8758 193.193 46.8758H183.965V38.5694C183.965 36.312 183.259 34.4426 181.83 32.9259C180.401 31.4092 178.566 30.6509 176.307 30.6509C174.049 30.6509 172.178 31.4092 170.661 32.9259C169.143 34.4426 168.385 36.3296 168.385 38.5694V46.8758H162.403C160.321 46.8758 158.592 47.546 157.198 48.8863C155.804 50.2266 155.116 51.902 155.116 53.8772C155.116 55.8524 155.804 57.6865 157.198 59.0797C158.574 60.473 160.321 61.1607 162.403 61.1607H168.385V96.9966C168.385 101.247 169.038 104.58 170.326 106.996C171.631 109.412 173.255 111.211 175.196 112.393C177.137 113.557 179.219 114.297 181.424 114.597C183.63 114.897 185.641 115.056 187.459 115.056C190.494 115.056 193.335 114.28 195.964 112.71C198.61 111.158 199.934 109.165 199.934 106.732C199.934 104.739 199.44 103.187 198.434 102.058C197.446 100.929 196.334 100.365 195.117 100.365C193.987 100.365 192.999 100.559 192.135 100.947C191.27 101.335 190.317 101.529 189.276 101.529C188.323 101.529 187.441 101.353 186.612 101.018C185.783 100.665 185.147 100.1 184.671 99.3245C184.195 98.5485 183.948 97.5433 183.948 96.3441V61.1607H193.176H193.193Z" fill="#323541"/>
<path d="M257.438 46.4878C255.656 45.0241 253.468 44.2834 250.874 44.2834C248.704 44.2834 246.534 44.5479 244.381 45.0593C242.211 45.5708 240.182 46.382 238.276 47.4578C236.37 48.5336 234.659 49.8915 233.141 51.4787C232.065 52.6074 231.147 53.8772 230.353 55.2528V53.4892C230.353 51.2318 229.612 49.3624 228.148 47.8458C226.683 46.3291 224.813 45.5708 222.554 45.5708C220.296 45.5708 218.443 46.3291 216.961 47.8458C215.479 49.3624 214.755 51.2495 214.755 53.4892V107.12C214.755 109.377 215.496 111.246 216.961 112.763C218.425 114.28 220.296 115.038 222.554 115.038C224.813 115.038 226.666 114.28 228.148 112.763C229.612 111.246 230.353 109.359 230.353 107.12V76.3451C230.353 73.2236 230.759 70.5253 231.589 68.2327C232.418 65.94 233.494 64.0178 234.835 62.4482C236.176 60.8962 237.641 59.7499 239.246 59.0092C240.852 58.2685 242.422 57.8982 243.993 57.8982C245.722 57.8982 247.257 58.198 248.598 58.8152C249.939 59.4148 251.439 59.7323 253.08 59.7323C254.809 59.7323 256.415 59.0974 257.879 57.8452C259.344 56.5931 260.085 54.5297 260.085 51.6727C260.085 49.6799 259.203 47.9516 257.421 46.4702L257.438 46.4878Z" fill="#323541"/>
<path d="M321.418 54.4768C318.384 51.32 314.907 48.8334 310.955 47.0169C307.02 45.2004 302.838 44.2834 298.41 44.2834C292.693 44.2834 287.276 45.7648 282.176 48.6923C277.059 51.6375 272.93 55.8524 269.772 61.3548C266.614 66.8571 265.026 73.4881 265.026 81.2831C265.026 87.9495 266.472 93.928 269.384 99.2011C272.278 104.474 276.442 108.654 281.859 111.74C287.276 114.809 293.663 116.343 301.021 116.343C305.344 116.343 309.543 115.638 313.619 114.209C317.695 112.781 320.854 111.123 323.112 109.218C325.53 107.314 326.747 105.197 326.747 102.852C326.747 101.123 326.112 99.6067 324.859 98.3016C323.606 96.9966 322.018 96.3617 320.113 96.3617C318.719 96.3617 317.254 96.7497 315.702 97.5257C314.749 98.0371 313.69 98.672 312.525 99.4127C311.361 100.153 309.826 100.771 307.92 101.3C306.014 101.811 303.456 102.076 300.262 102.076C296.804 102.076 293.522 101.229 290.452 99.5361C287.382 97.8431 284.858 95.3741 282.917 92.1291C281.788 90.2421 281.012 88.0729 280.553 85.7097H323.395C325.477 85.7097 327.294 85.0572 328.847 83.7698C330.4 82.4647 331.229 80.7893 331.317 78.7083C331.317 74.0349 330.435 69.6259 328.653 65.4639C326.871 61.3018 324.471 57.6512 321.436 54.4945L321.418 54.4768ZM285.299 63.1183C286.94 61.4782 288.899 60.3142 291.14 59.6088C293.398 58.921 295.816 58.5683 298.41 58.5683C301.003 58.5683 303.632 59.1503 306.014 60.3142C308.397 61.4782 310.39 63.0654 311.996 65.0583C313.602 67.0511 314.484 69.3085 314.66 71.8128V72.7298H280.641C280.853 71.6717 281.1 70.6488 281.4 69.7494C282.353 66.9806 283.658 64.7761 285.299 63.1183Z" fill="#323541"/>
<path d="M397.68 45.7119C394.556 45.5355 392.263 47.1933 390.798 50.6499L373.012 91.5295L355.067 50.5264C354.379 48.8863 353.338 47.6518 351.944 46.8229C350.55 45.994 349.05 45.5884 347.392 45.5884C345.045 45.5884 343.192 46.3467 341.798 47.8634C340.404 49.3801 339.716 50.9144 339.716 52.4663C339.716 53.4187 339.822 54.2476 340.034 54.9354C340.246 55.6231 340.44 56.1875 340.616 56.6284L364.79 110.135C365.566 111.952 366.713 113.292 368.23 114.156C369.748 115.02 371.318 115.32 372.977 115.073C376.012 114.897 378.217 113.257 379.594 110.135L403.89 56.6284C404.155 56.0288 404.385 55.3762 404.614 54.6885C404.826 54.0007 404.932 53.3481 404.932 52.7485C404.932 50.7557 404.261 49.0979 402.92 47.7576C401.579 46.4173 399.832 45.7471 397.662 45.7471L397.68 45.7119Z" fill="#323541"/>
<path d="M473.94 44.2834C471.682 44.2834 469.829 45.0417 468.347 46.5584C466.883 48.075 466.141 49.9621 466.141 52.2018V52.3958C465.383 51.6727 464.553 50.9673 463.601 50.2619C461.307 48.5336 458.607 47.1051 455.484 45.9764C452.361 44.8477 448.938 44.2834 445.215 44.2834C439.41 44.2834 434.134 45.8177 429.37 48.8863C424.605 51.9549 420.812 56.2051 418.006 61.6193C415.183 67.0335 413.789 73.2942 413.789 80.3837C413.789 87.4733 415.201 93.6105 418.006 99.0247C420.812 104.439 424.658 108.671 429.511 111.758C434.363 114.826 439.78 116.361 445.744 116.361C449.044 116.361 452.096 115.814 454.902 114.738C457.707 113.662 460.16 112.34 462.242 110.77C463.777 109.606 465.083 108.442 466.159 107.261C466.194 109.447 466.918 111.299 468.347 112.781C469.812 114.297 471.682 115.056 473.94 115.056C476.199 115.056 478.052 114.297 479.534 112.781C480.998 111.264 481.739 109.377 481.739 107.137V52.2018C481.739 49.8562 480.998 47.9692 479.534 46.4878C478.052 45.0241 476.199 44.2834 473.94 44.2834ZM464.395 91.4237C462.789 94.7216 460.566 97.314 457.707 99.2187C454.849 101.123 451.514 102.076 447.703 102.076C443.891 102.076 440.68 101.123 437.821 99.2187C434.963 97.314 432.74 94.7216 431.134 91.4237C429.528 88.1258 428.734 84.4576 428.734 80.3837C428.734 76.3099 429.528 72.5005 431.134 69.2203C432.74 65.9224 434.963 63.33 437.821 61.4253C440.68 59.5206 443.962 58.5683 447.703 58.5683C451.443 58.5683 454.849 59.5206 457.707 61.4253C460.566 63.33 462.789 65.9224 464.395 69.2203C466 72.5182 466.794 76.2393 466.794 80.3837C466.794 84.5281 465.983 88.1258 464.395 91.4237Z" fill="#323541"/>
<path d="M512.988 99.1482C511.647 97.8079 509.724 97.1377 507.201 97.1377H505.507C503.001 97.1377 501.06 97.8079 499.719 99.1482C498.378 100.488 497.708 102.411 497.708 104.933V107.137C497.708 109.641 498.378 111.581 499.719 112.922C501.06 114.262 502.984 114.932 505.507 114.932H507.201C509.707 114.932 511.647 114.262 512.988 112.922C514.329 111.581 515 109.659 515 107.137V104.933C515 102.428 514.329 100.488 512.988 99.1482Z" fill="#323541"/>
</g>
<defs>
<clipPath id="clip0_1053_1929">
<rect width="515" height="146.994" fill="white"/>
</clipPath>
</defs>
</svg>

<svg width="515" height="147" fill="none" xmlns="http://www.w3.org/2000/svg"><g clip-path="url(#a)"><path d="M147.07 73.506a73.43 73.43 0 0 1-2.541 19.223c-3.123 11.586-9.034 22.044-16.974 30.615-13.411 14.55-32.661 23.65-54.029 23.65-21.368 0-41.007-9.312-54.434-24.108h-.018C7.217 109.835 0 92.517 0 73.506c0-4.321.37-8.571 1.094-12.698 4.94-28.394 26.203-51.197 53.764-58.41A73.198 73.198 0 0 1 73.526 0c18.968 0 36.243 7.16 49.282 18.958 14.91 13.439 24.262 32.909 24.262 54.548Z" fill="#FCFCFC"/><path d="M147.07 73.506a73.43 73.43 0 0 1-2.541 19.223c-12.087 2.416-24.209 2.328-36.401.3-6.829-9.506-14.063-18.712-22.303-27.054-5.012-5.079-2.612-11.286-3.335-17.036 2.946-.158 5.928.265 8.557-1.957 7.288-6.19 15.122-11.781 21.933-18.412a13.82 13.82 0 0 1 1.323-1.111c1.165-.847 2.471-1.587 3.706-2.416.247-.159.494-.318.741-.494.988-.67 1.905-1.428 2.611-2.346a7.599 7.599 0 0 0 1.218-2.31c.106-.3.194-.6.229-.935 14.91 13.439 24.262 32.909 24.262 54.548Z" fill="#4AD2C3"/><path d="M45.753 124.649c-9.07 3.81-18.756 3.016-26.661-1.763h-.018C7.217 109.835 0 92.517 0 73.506c0-4.321.37-8.571 1.094-12.698 5.558-.159 11.028-.035 16.392.547.318.035.653.07 1.006.106 1.2.14 2.4.3 3.6.511 1.2.212 2.381.423 3.564.67.988.212 1.976.441 2.964.688l.035.018c.988.264 1.959.529 2.93.829a58.64 58.64 0 0 1 10.533 4.39c1.676.9 3.335 1.905 4.976 2.999 0 0 0 .017.018.017.9.6 1.764 1.235 2.646 1.905.865.67 1.747 1.376 2.594 2.116-3.052 4.11-6.246 8.095-9.087 12.328-1.782 2.663-4.57 6.19-2.17 8.906 2.682 2.998 6.21 0 8.893-1.658 4.587-2.857 8.91-6.067 13.392-9.17 4.464 15.184-3.582 32.731-17.627 38.639Z" fill="#E9526A"/><path d="m63.857 62.995-11.505 12.61a56.753 56.753 0 0 0-2.593-2.117 52.456 52.456 0 0 0-2.647-1.904c-.018 0-.018-.018-.018-.018a61.055 61.055 0 0 0-4.976-2.998 58.643 58.643 0 0 0-10.534-4.391c-.97-.3-1.94-.565-2.929-.83l-.035-.017a89.771 89.771 0 0 0-2.964-.688 87.88 87.88 0 0 0-7.164-1.181c-.353-.036-.688-.071-1.006-.106-5.364-.582-10.834-.706-16.392-.547 4.94-28.394 26.203-51.197 53.764-58.41-1.059 3.986-1.87 7.937-2.365 11.852-.105.67-.176 1.34-.247 2.01-1.747 16.366 1.606 32.027 11.61 46.735Z" fill="#F4B832"/><path d="M122.808 18.958a4.004 4.004 0 0 1-.229.935c-.071.212-.141.441-.23.635-.176.423-.37.794-.617 1.164-.106.176-.247.353-.371.511-.706.918-1.623 1.676-2.611 2.346-.247.176-.494.335-.741.494-1.235.829-2.541 1.57-3.706 2.416-.476.353-.917.705-1.323 1.11-6.811 6.632-14.645 12.223-21.933 18.413-2.629 2.222-5.61 1.799-8.557 1.957-1.094-6.437-2.1-12.91-3.3-19.329-.653-3.51-1.43-8.535-5.17-8.5-4.376.035-5.152 5.344-5.734 9.03-1.694 10.916-2.982 21.885-4.43 32.855C53.853 48.287 50.5 32.626 52.247 16.26c.071-.67.142-1.34.247-2.01.494-3.915 1.306-7.866 2.365-11.852A73.199 73.199 0 0 1 73.526 0c18.968 0 36.243 7.16 49.282 18.958Z" fill="#53C2D9"/><path d="M144.529 92.729c-3.123 11.586-9.034 22.044-16.974 30.615a32.795 32.795 0 0 1-6.67 2.61c-18.616 5.132-35.237-7.742-37.901-28.605-.441-3.527-.053-7.142-.053-11.657 5.999 3.81 11.504 7.583 17.274 10.881 3.864 2.205 7.693 2.875 7.923-3.544 12.192 2.028 24.314 2.116 36.401-.3Z" fill="#F4B832"/><path d="M193.193 61.16c2.082 0 3.812-.67 5.206-2.01 1.376-1.34 2.082-3.015 2.082-4.99 0-1.976-.688-3.81-2.082-5.203-1.394-1.376-3.124-2.081-5.206-2.081h-9.228v-8.307c0-2.257-.706-4.126-2.135-5.643-1.429-1.517-3.264-2.275-5.523-2.275-2.258 0-4.129.758-5.646 2.275-1.518 1.517-2.276 3.404-2.276 5.643v8.307h-5.982c-2.082 0-3.811.67-5.205 2.01-1.394 1.34-2.082 3.016-2.082 4.991 0 1.975.688 3.81 2.082 5.203 1.376 1.393 3.123 2.08 5.205 2.08h5.982v35.837c0 4.25.653 7.583 1.941 9.999 1.305 2.416 2.929 4.215 4.87 5.397a16.288 16.288 0 0 0 6.228 2.204c2.206.3 4.217.459 6.035.459 3.035 0 5.876-.776 8.505-2.346 2.646-1.552 3.97-3.545 3.97-5.978 0-1.993-.494-3.545-1.5-4.674-.988-1.129-2.1-1.693-3.317-1.693-1.13 0-2.118.194-2.982.582-.865.388-1.818.582-2.859.582a7.025 7.025 0 0 1-2.664-.511c-.829-.353-1.465-.918-1.941-1.694-.476-.775-.723-1.78-.723-2.98V61.161h9.245ZM257.438 46.488c-1.782-1.464-3.97-2.205-6.564-2.205-2.17 0-4.34.265-6.493.776a23.182 23.182 0 0 0-6.105 2.399 22.21 22.21 0 0 0-5.135 4.02c-1.076 1.13-1.994 2.4-2.788 3.775v-1.764c0-2.257-.741-4.127-2.205-5.643-1.465-1.517-3.335-2.275-5.594-2.275-2.258 0-4.111.758-5.593 2.275-1.482 1.516-2.206 3.404-2.206 5.643v53.631c0 2.257.741 4.126 2.206 5.643 1.464 1.517 3.335 2.275 5.593 2.275 2.259 0 4.112-.758 5.594-2.275 1.464-1.517 2.205-3.404 2.205-5.643V76.345c0-3.121.406-5.82 1.236-8.112.829-2.293 1.905-4.215 3.246-5.785 1.341-1.552 2.806-2.698 4.411-3.439 1.606-.74 3.176-1.11 4.747-1.11 1.729 0 3.264.299 4.605.916 1.341.6 2.841.917 4.482.917 1.729 0 3.335-.635 4.799-1.887 1.465-1.252 2.206-3.315 2.206-6.172 0-1.993-.882-3.721-2.664-5.203l.017.018ZM321.418 54.477c-3.034-3.157-6.511-5.644-10.463-7.46-3.935-1.817-8.117-2.734-12.545-2.734-5.717 0-11.134 1.482-16.234 4.41-5.117 2.945-9.246 7.16-12.404 12.662-3.158 5.502-4.746 12.133-4.746 19.928 0 6.666 1.446 12.645 4.358 17.918 2.894 5.273 7.058 9.453 12.475 12.539 5.417 3.069 11.804 4.603 19.162 4.603a37.8 37.8 0 0 0 12.598-2.134c4.076-1.428 7.235-3.086 9.493-4.991 2.418-1.904 3.635-4.021 3.635-6.366 0-1.729-.635-3.245-1.888-4.55-1.253-1.305-2.841-1.94-4.746-1.94-1.394 0-2.859.388-4.411 1.164a51.033 51.033 0 0 0-3.177 1.887c-1.164.74-2.699 1.358-4.605 1.887-1.906.511-4.464.776-7.658.776-3.458 0-6.74-.847-9.81-2.54-3.07-1.693-5.594-4.162-7.535-7.407-1.129-1.887-1.905-4.056-2.364-6.42h42.842c2.082 0 3.899-.652 5.452-1.94 1.553-1.304 2.382-2.98 2.47-5.06 0-4.674-.882-9.083-2.664-13.245-1.782-4.162-4.182-7.813-7.217-10.97l-.018-.017Zm-36.119 8.641c1.641-1.64 3.6-2.804 5.841-3.51 2.258-.687 4.676-1.04 7.27-1.04 2.593 0 5.222.582 7.604 1.746 2.383 1.164 4.376 2.751 5.982 4.744 1.606 1.993 2.488 4.25 2.664 6.755v.917h-34.019c.212-1.058.459-2.081.759-2.98.953-2.77 2.258-4.974 3.899-6.632ZM397.68 45.712c-3.124-.177-5.417 1.481-6.882 4.938l-17.786 40.88-17.945-41.004c-.688-1.64-1.729-2.874-3.123-3.703-1.394-.829-2.894-1.235-4.552-1.235-2.347 0-4.2.759-5.594 2.275-1.394 1.517-2.082 3.051-2.082 4.603 0 .953.106 1.782.318 2.47.212.687.406 1.252.582 1.692l24.174 53.507c.776 1.817 1.923 3.157 3.44 4.021 1.518.864 3.088 1.164 4.747.917 3.035-.176 5.24-1.816 6.617-4.938l24.296-53.507c.265-.6.495-1.252.724-1.94a6.63 6.63 0 0 0 .318-1.94c0-1.992-.671-3.65-2.012-4.99-1.341-1.34-3.088-2.01-5.258-2.01l.018-.036ZM473.94 44.283c-2.258 0-4.111.759-5.593 2.275-1.464 1.517-2.206 3.404-2.206 5.644v.194a26.517 26.517 0 0 0-2.54-2.134c-2.294-1.728-4.994-3.157-8.117-4.286-3.123-1.128-6.546-1.693-10.269-1.693-5.805 0-11.081 1.535-15.845 4.603-4.765 3.069-8.558 7.32-11.364 12.733-2.823 5.415-4.217 11.675-4.217 18.765s1.412 13.227 4.217 18.64c2.806 5.415 6.652 9.647 11.505 12.734 4.852 3.068 10.269 4.603 16.233 4.603 3.3 0 6.352-.547 9.158-1.623 2.805-1.076 5.258-2.398 7.34-3.968 1.535-1.164 2.841-2.328 3.917-3.509.035 2.186.759 4.038 2.188 5.52 1.465 1.516 3.335 2.275 5.593 2.275 2.259 0 4.112-.759 5.594-2.275 1.464-1.517 2.205-3.404 2.205-5.644V52.202c0-2.346-.741-4.233-2.205-5.714-1.482-1.464-3.335-2.205-5.594-2.205Zm-9.545 47.14c-1.606 3.299-3.829 5.891-6.688 7.796-2.858 1.904-6.193 2.857-10.004 2.857-3.812 0-7.023-.953-9.882-2.857-2.858-1.905-5.081-4.497-6.687-7.795-1.606-3.298-2.4-6.966-2.4-11.04 0-4.074.794-7.883 2.4-11.164 1.606-3.298 3.829-5.89 6.687-7.795 2.859-1.904 6.141-2.857 9.882-2.857 3.74 0 7.146.953 10.004 2.857 2.859 1.905 5.082 4.497 6.688 7.795 1.605 3.298 2.399 7.02 2.399 11.164s-.811 7.742-2.399 11.04ZM512.988 99.148c-1.341-1.34-3.264-2.01-5.787-2.01h-1.694c-2.506 0-4.447.67-5.788 2.01-1.341 1.34-2.011 3.263-2.011 5.785v2.204c0 2.504.67 4.444 2.011 5.785 1.341 1.34 3.265 2.01 5.788 2.01h1.694c2.506 0 4.446-.67 5.787-2.01 1.341-1.341 2.012-3.263 2.012-5.785v-2.204c0-2.505-.671-4.445-2.012-5.785Z" fill="#323541"/></g><defs><clipPath id="a"><path fill="#fff" d="M0 0h515v146.994H0z"/></clipPath></defs></svg>
